X:140
T:Weeds In The Garden Jig
R:jig
C:Bruce Osborne - Dec. 1997
Z:bosborne@kos.net
M:6/8
L:1/8
K:Amaj
A/B/|cAA EAE|CEC A,CE|GBd gfe|gbg gfe|
cAA EAE|CEC A,CE|GBe gfe|dcB A2:|
|:z|A,CE Ace|ac'a aec|EGB dcB|Acf ece|
A,CE Ace|agf ece|gfe dcB|A3 A2:|
